X: 1316
T: The Camels Are Coming
B: australian traditional tunes wiki
M:6/8
L:1/8
R: Jig
Q: 3/8=100
K:D
V:1 
F|"D"DFB AFD|"Bm"DFF F2E|"D"FAB AFD|"A7"DEE GFE|"D"DFB AFD|
"Bm"DFA d2e|"D"fed BdB|1AFF "A7"GFE:|2AFF "Bm"F2A||
|:"D"ddd def|"Bm"ABA AFA|"D"d3def|"G"ABBB3|"D"ABc "G"dcB|
"D"ABcd2e|fed BdB|1"Bm"AFFF2A:|2AFF "A7"GFE||"D"D6||
% abcbook-tune_id 6342d53a30ea694a4b5b7dab


% abcbook-boost 0
% abcbook-tablature 
% abcbook-transpose 
% abcbook-lastupdated 1665324358728
% abcbook-soundfonts 
% abcbook-repeats 1
% NFF Book 2009

